X:160
T: Seamus Meehan's
R: reel
M: C
L: 1/8
K: Bm
g | f2 Bc dBfB | eA ~A2 aecA | f2 Bc (3dcB fB |\
ceAc cB ~B2 |
fB ~B2 FBfB | eA ~A2 aecA | BcdB cdeg |1 fedc dB B :|2\
fedc dBBA ||
B2 ba faed |cAeA aecA |~B2 ba faed | cAeA dB ~B2 |
B2 ba faed |cAeA aecA |BcdB cdeg |1 fedc dBBA :|2\
fedc dB B :|
